azure-patterns/svg-target-deploy.svg

<svg xmlns="http://www.w3.org/2000/svg" viewBox="0 0 156 156">
                                
                            
<path d="M7.42871 37.1428V7.42847H37.143L7.42871 37.1428Z" fill="#0078D4"></path>
<path d="M37.143 44.5715V74.2858H7.42871L37.143 44.5715Z" fill="#50E6FF"></path>
<path d="M74.2856 7.42847V37.1428H44.5713L74.2856 7.42847Z" fill="#50E6FF"></path>
<path d="M81.7144 44.5715H111.429V74.2858L81.7144 44.5715Z" fill="#0078D4"></path>
<path d="M118.857 7.42847H148.571V37.1428L118.857 7.42847Z" fill="#0078D4"></path>
<path d="M148.571 74.2858H118.857V44.5715L148.571 74.2858Z" fill="#50E6FF"></path>
<path d="M111.429 37.1428H81.7144V7.42847L111.429 37.1428Z" fill="#50E6FF"></path>
<path d="M111.429 81.7144V111.429H81.7144L111.429 81.7144Z" fill="#0078D4"></path>
<path d="M148.571 118.857V148.571H118.857L148.571 118.857Z" fill="#0078D4"></path>
<path d="M118.857 111.429V81.7144H148.571L118.857 111.429Z" fill="#50E6FF"></path>
<path d="M81.7144 148.571V118.857H111.429L81.7144 148.571Z" fill="#50E6FF"></path>
<path d="M74.2856 111.429H44.5713V81.7144L74.2856 111.429Z" fill="#0078D4"></path>
<path d="M37.143 148.571H7.42871V118.857L37.143 148.571Z" fill="#0078D4"></path>
<path d="M7.42871 81.7144H37.143V111.429L7.42871 81.7144Z" fill="#50E6FF"></path>
<path d="M44.5713 118.857H74.2856V148.571L44.5713 118.857Z" fill="#50E6FF"></path>
<path d="M44.5713 74.2858V44.5715H74.2856L44.5713 74.2858Z" fill="#0078D4"></path>
<path d="M78.0247 89.638C84.1787 89.638 89.1676 84.6492 89.1676 78.4952C89.1676 72.3411 84.1787 67.3523 78.0247 67.3523C71.8707 67.3523 66.8818 72.3411 66.8818 78.4952C66.8818 84.6492 71.8707 89.638 78.0247 89.638Z" fill="black"></path>
</svg>

<svg xmlns="http://www.w3.org/2000/svg" viewBox="0 0 156 156"><path d="M7.429 37.143V7.428h29.714L7.429 37.143z" fill="#0078D4"/><path d="M37.143 44.572v29.714H7.429L37.143 44.57zM74.286 7.428v29.715H44.57L74.286 7.428z" fill="#50E6FF"/><path d="M81.714 44.572h29.715v29.714L81.714 44.57zM118.857 7.428h29.714v29.715L118.857 7.428z" fill="#0078D4"/><path d="M148.571 74.286h-29.714V44.57l29.714 29.715zM111.429 37.143H81.714V7.428l29.715 29.715z" fill="#50E6FF"/><path d="M111.429 81.714v29.715H81.714l29.715-29.715zM148.571 118.857v29.714h-29.714l29.714-29.714z" fill="#0078D4"/><path d="M118.857 111.429V81.714h29.714l-29.714 29.715zM81.714 148.571v-29.714h29.715l-29.715 29.714z" fill="#50E6FF"/><path d="M74.286 111.429H44.57V81.714l29.715 29.715zM37.143 148.571H7.429v-29.714l29.714 29.714z" fill="#0078D4"/><path d="M7.429 81.714h29.714v29.715L7.429 81.714zM44.571 118.857h29.715v29.714L44.57 118.857z" fill="#50E6FF"/><path d="M44.571 74.286V44.57h29.715L44.57 74.287z" fill="#0078D4"/><path d="M78.025 89.638c6.154 0 11.143-4.989 11.143-11.143 0-6.154-4.99-11.143-11.143-11.143-6.154 0-11.143 4.99-11.143 11.143 0 6.154 4.989 11.143 11.143 11.143z"/></svg>
